X: 1141
M: 6/8
L: 1/8
K: D
f2f fgf | ede d3 | c2d e2c | d2e f2d |\
f2f fgf | ede d3 | g2f e2d | cBc d2 ]
e2e c2A | d2f e2z | efe c2A | def e2e |\
a2a ^g2g | fef e2c | d2d cfe | dcB "^da Capo"A2 :|

